img/MTool_logo.svg

<?xml version="1.0" encoding="UTF-8"?>
<svg width="66px" height="64px" viewBox="0 0 66 64" version="1.1" xmlns="http://www.w3.org/2000/svg" xmlns:xlink="http://www.w3.org/1999/xlink">
    <!-- Generator: Sketch 61.2 (89653) - https://sketch.com -->
    <title>MTool logo</title>
    <desc>Created with Sketch.</desc>
    <g id="官网-文档页面规则" stroke="none" stroke-width="1" fill="none" fill-rule="evenodd">
        <g id="画板" transform="translate(-401.000000, -141.000000)">
            <g id="MTool-logo" transform="translate(401.000000, 141.000000)">
                <g id="扩展备份-8">
                    <g id="dide">
                        <path d="M47.0669418,41.6996856 C46.6000188,49.6393396 42.1667874,56.8102654 35.2730739,60.7767295 C24.0136399,67.2694968 9.65137576,63.4627358 3.18974057,52.2984276 C-2.31025943,42.7979559 -0.297051887,31.0265723 7.34933179,23.7018868 C7.34933179,24.6306604 7.50845131,26.8375786 8.14838839,29.2036163 C3.82967773,35.0893081 3.12574688,43.1819182 6.9965016,49.8683962 C12.2111242,58.9191824 23.8856525,61.9908805 33.0332941,56.7122642 C38.5899688,53.5222463 42.1872858,47.7687452 42.6219733,41.3762578 C41.7320054,40.9002332 40.9927784,40.1849682 40.4876965,39.3111635 C39.7636418,38.0563576 39.5691735,36.5648434 39.9472806,35.1663342 C40.3253876,33.767825 41.2449298,32.5774996 42.5026337,31.8584906 C45.0935142,30.3555031 48.4194575,31.2514151 49.9553066,33.8422956 C50.7642721,35.2424965 50.9094188,36.9297107 50.3514807,38.4475029 C49.7935426,39.965295 48.5901829,41.1568003 47.0669418,41.6996856 L47.0669418,41.6996856 Z" id="形状" fill="#08B8DE" fill-rule="nonzero"></path>
                        <path d="M42.6219733,41.3762578 C41.7320054,40.9002332 40.9927784,40.1849682 40.4876965,39.3111635 C39.7636418,38.0563576 39.5691735,36.5648434 39.9472806,35.1663342 C40.3253876,33.767825 41.2449298,32.5774996 42.5026337,31.8584906 C45.0935142,30.3555031 48.4194575,31.2514151 49.9553066,33.8422956 C50.7642721,35.2424965 50.9094188,36.9297107 50.3514807,38.4475029 C49.7935426,39.965295 48.5901829,41.1568003 47.0669418,41.6996856 C47.0669418,41.6996856 42.6219733,41.3762578 42.6219733,41.3762578 Z" id="形状" fill="#121F38" fill-rule="nonzero"></path>
                        <path d="M31.4075078,18.2001573 C38.4935142,14.5922957 46.9891116,14.7687107 53.9211871,18.8089623 C65.180621,25.3328616 69.0842374,39.6639937 62.6208726,50.8265724 C57.088011,60.3910377 45.797445,64.5488994 35.5930425,61.4789308 C37.1675047,60.5057957 38.6267432,59.3575519 39.9428852,58.0561321 C47.2675708,58.920912 54.7219732,55.4963837 58.6221305,48.7476415 C63.8367531,39.6951258 60.6716588,28.0517295 51.5222877,22.7748427 C46.1120478,19.6250854 39.502056,19.3252774 33.8288915,21.9723271 C34.0140491,23.1879017 33.7785137,24.4302591 33.1612814,25.4937107 C32.4426847,26.7521711 31.2499437,27.6703547 29.8495346,28.0431254 C28.4491254,28.4158962 26.9577516,28.2121893 25.7086085,27.4775158 C24.4521938,26.7568548 23.5338441,25.5662401 23.1558965,24.1679963 C22.7779489,22.7697524 22.9714159,21.278612 23.6936714,20.0231132 C24.438309,18.717684 25.6916566,17.7801415 27.1542439,17.4344986 C28.6168312,17.0888558 30.1572752,17.3661615 31.4075078,18.2001573 L31.4075078,18.2001573 Z" id="路径" fill="#E40065" fill-rule="nonzero"></path>
                        <path d="M33.8288915,21.9723271 C34.0140491,23.1879017 33.7785137,24.4302591 33.1612814,25.4937107 C32.4426847,26.7521711 31.2499437,27.6703547 29.8495346,28.0431254 C28.4491254,28.4158962 26.9577516,28.2121893 25.7086085,27.4775158 C24.4521938,26.7568548 23.5338441,25.5662401 23.1558965,24.1679963 C22.7779489,22.7697524 22.9714159,21.278612 23.6936714,20.0231132 C24.438309,18.717684 25.6916566,17.7801415 27.1542439,17.4344986 C28.6168312,17.0888558 30.1572752,17.3661615 31.4075078,18.2001573 C31.6107211,18.0966906 33.8288915,21.9723271 33.8288915,21.9723271 Z" id="路径" fill="#121F38" fill-rule="nonzero"></path>
                        <path d="M19.5323507,43.4811321 C12.7124537,39.1469567 8.58583077,31.6233589 8.5963243,23.5427673 C8.5963243,10.5555031 19.0238601,0 31.9454009,0 C42.917728,0 52.1293632,7.61352199 54.6251179,17.8801887 C53.8260613,17.4650943 51.8422563,16.4740566 49.5073507,15.8652516 C46.5325079,9.1805032 39.8788915,4.51069188 32.1702437,4.5106918 C21.6787342,4.5106918 13.2021619,13.0823899 13.202162,23.6396226 C13.202162,30.0926101 16.4191431,36.083805 21.7496462,39.6259434 C23.412683,38.4106875 25.6175912,38.2332573 27.4535548,39.1669467 C29.2895183,40.1006361 30.4448944,41.9869574 30.4424135,44.0466981 C30.447956,45.4988241 29.8735534,46.8930747 28.8467378,47.9198903 C27.8199222,48.9467059 26.4256716,49.5211086 24.9735456,49.5156058 C23.4238862,49.5166289 21.9465765,48.8599975 20.908998,47.7089648 C19.8714196,46.5579321 19.3710602,45.0206458 19.5323507,43.4794025 L19.5323507,43.4811321 Z" id="路径" fill="#F9BE00" fill-rule="nonzero"></path>
                        <path d="M21.7496462,39.6259434 C23.412683,38.4106875 25.6175912,38.2332573 27.4535548,39.1669467 C29.2895183,40.1006361 30.4448944,41.9869574 30.4424135,44.0466981 C30.447956,45.4988241 29.8735534,46.8930747 28.8467378,47.9198903 C27.8199222,48.9467059 26.4256716,49.5211086 24.9735456,49.515566 C23.4238862,49.5166289 21.9465765,48.8599975 20.908998,47.7089648 C19.8714196,46.5579321 19.3710602,45.0206458 19.5323507,43.4794025 C21.7496462,39.6259434 20.7893156,41.2830983 21.7496462,39.6259434 Z" id="路径" fill="#121F38" fill-rule="nonzero"></path>
                    </g>
                </g>
            </g>
        </g>
    </g>
</svg>

<svg width="66" height="64" viewBox="0 0 66 64" xmlns="http://www.w3.org/2000/svg"><g fill="none"><path d="M47.067 41.7a23.608 23.608 0 01-11.794 19.077c-11.26 6.492-25.622 2.686-32.083-8.479-5.5-9.5-3.487-21.271 4.16-28.596 0 .929.158 3.136.798 5.502-4.318 5.885-5.022 13.978-1.151 20.664 5.214 9.051 16.889 12.123 26.036 6.844a19.184 19.184 0 009.589-15.336 5.415 5.415 0 01-2.134-2.065 5.448 5.448 0 012.015-7.453c2.59-1.502 5.916-.607 7.452 1.984a5.448 5.448 0 01-2.888 7.858z" fill="#08B8DE"/><path d="M42.622 41.376a5.415 5.415 0 01-2.134-2.065 5.448 5.448 0 012.015-7.453c2.59-1.502 5.916-.607 7.452 1.984a5.448 5.448 0 01-2.888 7.858l-4.445-.324z" fill="#121F38"/><path d="M31.408 18.2c7.086-3.608 15.581-3.431 22.513.609 11.26 6.524 15.163 20.855 8.7 32.018-5.533 9.564-16.824 13.722-27.028 10.652a24.525 24.525 0 004.35-3.423c7.325.865 14.779-2.56 18.68-9.308 5.214-9.053 2.049-20.696-7.1-25.973a19.108 19.108 0 00-17.694-.803 5.396 5.396 0 01-.668 3.522 5.419 5.419 0 01-7.452 1.984 5.457 5.457 0 01-2.015-7.455 5.419 5.419 0 017.714-1.823z" fill="#E40065"/><path d="M33.829 21.972a5.396 5.396 0 01-.668 3.522 5.419 5.419 0 01-7.452 1.984 5.457 5.457 0 01-2.015-7.455 5.419 5.419 0 017.714-1.823c.203-.103 2.42 3.772 2.42 3.772z" fill="#121F38"/><path d="M19.532 43.481A23.588 23.588 0 018.596 23.543C8.596 10.556 19.024 0 31.946 0c10.972 0 20.183 7.614 22.68 17.88-.8-.415-2.784-1.406-5.119-2.015C46.533 9.181 39.88 4.511 32.17 4.511c-10.491 0-18.968 8.571-18.968 19.129a19.175 19.175 0 008.548 15.986 5.467 5.467 0 018.692 4.42 5.448 5.448 0 01-5.468 5.47 5.467 5.467 0 01-5.442-6.037v.002z" fill="#F9BE00"/><path d="M21.75 39.626a5.467 5.467 0 018.692 4.42 5.448 5.448 0 01-5.468 5.47 5.467 5.467 0 01-5.442-6.037c2.218-3.853 1.257-2.196 2.218-3.853z" fill="#121F38"/></g></svg>
